X: 1694
T: Segâh Seyir
C: Rauf Yektâ
O: Turkey
F: http://compmusic.upf.edu/node/140
N: segah--seyir--semai--1--rauf_yekta
N: makam= segah
N: form= seyir
N: usul= semai = 3/4
M: 3/4
L: 1/16
K: C _1/4B _1/4e ^f 
Q: 1/4=120
%%MIDI tuningsystem comma53
B8 d4  | d8 c4  | d8 c4  | d4 B8  | c8 d4  | e8 d2e2  | \
w:   |   |   |   |   |   | 
f8 e4  | d8 z4  | d4 e4 f4  | g8 e4  | 
w:   |   |   |   | 
z4 f4 e4  | f4 d8  | z4 B4 c4  | d4 e4 f4  | \
w:   |   |   |   | 
d8 c4  | B8 z4  | B8 g4  | f8 e4  | d8 e4  | 
w:   |   |   |   |   | 
f8 z4  | f4 g4 a4  | b4 c'4 b4  | a4 g6f2  | \
w:   |   |   |   | 
f8 z4  | e4 f4 g4  | a8 g4  | g8 f4  | e4 d8  | 
w:   |   |   |   |   | 
z4 c4 d4  | e8 f4  | d8 c4  | B8 z4  | |


